X: 21
T: THE KING'S DELIGHT
B: "Old English Country Dances", Frank Kidson ed., William Reeves pub., London 1890
Z: 2010-9-26 John Chambers <jc:trillian.mit.edu>
M: 6/4
L: 1/8
K: D
d4d2 a4a2 | f3ef2 d3ed2 | e3fe2 a3b ag | f6 e6 ||
d4d2 a4a2 | f3ef2 d2e2f2 | g3ag2 f3ef2 | e2d2e2
A2B2c2 | d2e2f2 gf ed3 | e6 d6 | e4f2 gf ed3 | e6 d6 |]


%%sep 1 1 500

%%sep 1 1 500

